symbols/web/emoji_nature/materialsymbolsoutlined/emoji_nature_fill1_40px.svg

<svg xmlns="http://www.w3.org/2000/svg" height="40" width="40"><path d="m30.083 14.708-1.5 1.334q-.5.458-1.229.5-.729.041-1.312-.417-.584-.417-.73-1.125-.145-.708.063-1.333l.667-2.292-1.667-.958q-.583-.334-.792-.979-.208-.646 0-1.313.209-.708.75-1.062.542-.355 1.292-.355h1.917l.583-1.75q.208-.708.729-1.187.521-.479 1.229-.479.709 0 1.229.479.521.479.73 1.187l.583 1.75h1.917q.708 0 1.27.375.563.375.771 1.042.25.625.042 1.292-.208.666-.833 1l-1.709.958.709 2.292q.208.666.062 1.354-.146.687-.729 1.104-.583.417-1.313.396-.729-.021-1.229-.479Zm0-2.791q.709 0 1.188-.479.479-.48.479-1.188t-.479-1.187q-.479-.48-1.188-.48-.708 0-1.187.48-.479.479-.479 1.187 0 .708.479 1.188.479.479 1.187.479Zm-7.708 18.291q.917 2.334-.646 4.396-1.562 2.063-4.229 2.063-1.333 0-2.479-.667-1.146-.667-1.729-1.958-3.042.375-5.313-1.896t-2.021-5.313q-1.25-.666-1.937-1.979-.688-1.312-.688-2.646 0-2.708 2.084-4.146 2.083-1.437 4.625-.312l2.541 1.042q.75-1.459 2.104-2.313 1.355-.854 2.98-.937v-3.5h2.208v3.75q1.625.375 2.833 1.666 1.209 1.292 1.625 2.75h3.709v2.25h-3.5q-.125 1.584-.938 2.959-.812 1.375-2.271 2.125ZM9.417 24.792q1.541 0 3.125-.709 1.583-.708 2.541-1.291l-5.625-2.334Q8.375 20 7.25 20.542q-1.125.541-1.125 1.666 0 1.084 1.167 1.834 1.166.75 2.125.75Zm8.083 9.083q1.208 0 1.938-.813.729-.812.312-1.854l-2.417-6.166q-.75 1.25-1.395 2.583-.646 1.333-.646 3.083 0 1.042.562 2.104.563 1.063 1.646 1.063Zm2.708-8.958q.875-.542 1.209-1.355.333-.812.333-1.729 0-1.416-1-2.437t-2.417-1.021q-.916 0-1.75.396-.833.396-1.291 1.229l3.5 1.458Z"/></svg>

<svg xmlns="http://www.w3.org/2000/svg" height="40" width="40"><path d="M30.083 14.708 28.583 16.042Q28.083 16.5 27.354 16.542Q26.625 16.583 26.042 16.125Q25.458 15.708 25.312 15Q25.167 14.292 25.375 13.667L26.042 11.375L24.375 10.417Q23.792 10.083 23.583 9.438Q23.375 8.792 23.583 8.125Q23.792 7.417 24.333 7.063Q24.875 6.708 25.625 6.708H27.542L28.125 4.958Q28.333 4.25 28.854 3.771Q29.375 3.292 30.083 3.292Q30.792 3.292 31.312 3.771Q31.833 4.25 32.042 4.958L32.625 6.708H34.542Q35.25 6.708 35.812 7.083Q36.375 7.458 36.583 8.125Q36.833 8.75 36.625 9.417Q36.417 10.083 35.792 10.417L34.083 11.375L34.792 13.667Q35 14.333 34.854 15.021Q34.708 15.708 34.125 16.125Q33.542 16.542 32.812 16.521Q32.083 16.5 31.583 16.042ZM30.083 11.917Q30.792 11.917 31.271 11.438Q31.75 10.958 31.75 10.25Q31.75 9.542 31.271 9.063Q30.792 8.583 30.083 8.583Q29.375 8.583 28.896 9.063Q28.417 9.542 28.417 10.25Q28.417 10.958 28.896 11.438Q29.375 11.917 30.083 11.917ZM22.375 30.208Q23.292 32.542 21.729 34.604Q20.167 36.667 17.5 36.667Q16.167 36.667 15.021 36Q13.875 35.333 13.292 34.042Q10.25 34.417 7.979 32.146Q5.708 29.875 5.958 26.833Q4.708 26.167 4.021 24.854Q3.333 23.542 3.333 22.208Q3.333 19.5 5.417 18.062Q7.5 16.625 10.042 17.75L12.583 18.792Q13.333 17.333 14.687 16.479Q16.042 15.625 17.667 15.542V12.042H19.875V15.792Q21.5 16.167 22.708 17.458Q23.917 18.75 24.333 20.208H28.042V22.458H24.542Q24.417 24.042 23.604 25.417Q22.792 26.792 21.333 27.542ZM9.417 24.792Q10.958 24.792 12.542 24.083Q14.125 23.375 15.083 22.792L9.458 20.458Q8.375 20 7.25 20.542Q6.125 21.083 6.125 22.208Q6.125 23.292 7.292 24.042Q8.458 24.792 9.417 24.792ZM17.5 33.875Q18.708 33.875 19.438 33.062Q20.167 32.25 19.75 31.208L17.333 25.042Q16.583 26.292 15.938 27.625Q15.292 28.958 15.292 30.708Q15.292 31.75 15.854 32.812Q16.417 33.875 17.5 33.875ZM20.208 24.917Q21.083 24.375 21.417 23.562Q21.75 22.75 21.75 21.833Q21.75 20.417 20.75 19.396Q19.75 18.375 18.333 18.375Q17.417 18.375 16.583 18.771Q15.75 19.167 15.292 20L18.792 21.458Z"/></svg>
